symbolic/64x64/apps/org.gnome.IconPreview.svg

<svg xmlns="http://www.w3.org/2000/svg" width="64" height="64" version="1.1">
 <path style="opacity:0.2" d="M 8.8574219,13 C 6.7205647,13 5,14.79376 5,17.021484 V 48.978516 C 5,51.20624 6.7205647,53 8.8574219,53 H 32 32.134766 55.142578 C 57.279435,53 59,51.20624 59,48.978516 V 17.021484 C 59,14.79376 57.279435,12.998019 55.142578,13 H 32.134766 32 Z"/>
 <path style="fill:#e4e4e4" d="M 8.8575195,12 C 6.7206623,12 5,13.793109 5,16.020833 v 31.958332 c 0,2.227724 1.7206623,4.020834 3.8575195,4.020834 H 32.135 V 12 Z"/>
 <path style="opacity:0.2;fill:#ffffff" d="M 8.8574219 12 C 6.7205647 12 5 13.79376 5 16.021484 L 5 17.021484 C 5 14.79376 6.7205647 13 8.8574219 13 L 32.134766 13 L 32.134766 12 L 8.8574219 12 z"/>
 <path style="fill:#51495d" d="m 31.999999,12 v 39.999999 h 23.142856 c 2.136857,0 3.857143,-1.793852 3.857143,-4.021576 V 16.021576 c 0,-2.227724 -1.720286,-4.023557 -3.857143,-4.021576 z"/>
 <circle style="opacity:0.2" cx="48" cy="33" r="13"/>
 <circle style="fill:#e4e4e4" cx="48" cy="32" r="13"/>
 <circle style="fill:#3ea5e6" cx="48" cy="32" r="9"/>
 <path style="opacity:0.2" d="M 48 23 A 9 9 0 0 0 39 32 A 9 9 0 0 0 39.021484 32.576172 A 9 9 0 0 1 48 24 A 9 9 0 0 1 56.978516 32.423828 A 9 9 0 0 0 57 32 A 9 9 0 0 0 48 23 z"/>
 <path style="opacity:0.1;fill:#ffffff" d="M 32 12 L 32 13 L 55.142578 13 C 57.279435 12.998019 59 14.79376 59 17.021484 L 59 16.021484 C 59 13.79376 57.279435 11.998019 55.142578 12 L 32 12 z"/>
</svg>

<svg xmlns="http://www.w3.org/2000/svg" width="64" height="64"><path style="opacity:.2" d="M8.857 13C6.721 13 5 14.794 5 17.021V48.98C5 51.206 6.72 53 8.857 53h46.286C57.279 53 59 51.206 59 48.979V17.02c0-2.227-1.72-4.023-3.857-4.021H32z"/><path style="fill:#e4e4e4" d="M8.858 12C6.72 12 5 13.793 5 16.02v31.96C5 50.206 6.72 52 8.858 52h23.277V12z"/><path style="opacity:.2;fill:#fff" d="M8.857 12C6.721 12 5 13.794 5 16.021v1C5 14.794 6.72 13 8.857 13h23.278v-1H8.857z"/><path style="fill:#51495d" d="M32 12v40h23.143C57.28 52 59 50.206 59 47.978V16.022c0-2.228-1.72-4.024-3.857-4.022z"/><circle style="opacity:.2" cx="48" cy="33" r="13"/><circle style="fill:#e4e4e4" cx="48" cy="32" r="13"/><circle style="fill:#3ea5e6" cx="48" cy="32" r="9"/><path style="opacity:.2" d="M48 23a9 9 0 0 0-9 9 9 9 0 0 0 .021.576A9 9 0 0 1 48 24a9 9 0 0 1 8.979 8.424A9 9 0 0 0 57 32a9 9 0 0 0-9-9z"/><path style="opacity:.1;fill:#fff" d="M32 12v1h23.143C57.279 12.998 59 14.794 59 17.021v-1c0-2.227-1.72-4.023-3.857-4.021H32z"/></svg>
